X: 96
T: No_25_Second_Song_of_the_Mî'nîsîno'wuck.krn
%%abc-version 2.0
%%abcx-abcm2ps-target-version 5.9.1 (29 Sep 2008)
%%abc-creator hum2abc beta
%%abcx-conversion-date 2020/08/10 18:54:56
%%gracespace 0 6 6
%%humdrum-veritas 2723500302
%%humdrum-veritas-data 2588263398
%%linebreak <none>
%%barnumbers 0
L: 1/8
M: 5/4
%%staves {1 2}
V: 1 clef=treble
V: 2 clef=bass
K: E
[V:1] [K:clef=treble][M:5/4]F2F>GG>FF2F2 | 
[V:2] [K:clef=bass][M:5/4]G,,G,,G,,G,,G,,G,, G,,G,,G,,G,, | 
[V:1] F2E>FF>EE2E2[K:clef=bass] | 
[V:2] z8z2 | 
[V:1] B,2B,>B,B,>B,B,2B,2- ||  
[V:2] z8z2 ||  
[V:1] [M:2/4]B,2C2 ||  
[V:2] [M:2/4]z4 ||  
[V:1] [M:5/4]C2B,>B,B,>B,B,2B,2 | 
[V:2] [M:5/4]z8z2 | 
[V:1] C2C>EE>EE2E2 | 
[V:2] z8z2 | 
[V:1] C2C>FF>EE2E2 | 
[V:2] z8z2 | 
[V:1] B,2B,>B,B,>B,B,2B,2- ||  
[V:2] z8z2 ||  
[V:1] [M:2/4]B,2C2 ||  
[V:2] [M:2/4]z4 ||  
[V:1] [M:5/4]C2B,>B,B,>B,B,2A,2 | 
[V:2] [M:5/4]z8z2 | 
[V:1] B,2B,>CC>B,B,2B,2 | 
[V:2] z8z2 | 
[V:1] F,2F,>G,G,>F,F,2F,2 | 
[V:2] z8z2 | 
[V:1] F,2G,>F,F,>E,E,2E,2 |]  
[V:2] z8z2 |]  


